X: 9505
T: Dark Loanin
R: jig
M: 6/8
K: Gminor
|:"Gm"GAB AG^F|GAB c2c|d2d cdB|A2d cBA|
GAB AG^F|GAB c2c|d2d cdB|1 AG^F G2D:|2 AG^F GAB||
|:c2c cBA|c2c cBA|c2c cBA|ABA GAB|
c2c cBA|c2c cBA|d2d cdB|1 AG^F GAB:|2 AG^F G2A||
|:"Bbm"B3 dcB|f2e dcB|c2f c2c|cfc cBA|
ABB dcB|f2e dcB|d2d edc|1 cBA B2B:|2 cBA G3||

